X:1
T:Title
%%score 1 2 3
L:1/8
M:4/2
K:C
V:1 treble nm="Part_1"
V:2 bass nm="Part_2"
V:3 bass nm="Part_3"
V:1
 c8 A8 | z ABc d6 G2 B2 A2- | A2 ^G2 A4 z4 c4- | c4 A4 z4 d4- | d4 B4 z Bcd e4 | %5
 ^c A2 c d6 G2 B2 A2- | A2 ^G2 A4 z8 | z8 z2 e2 ^c3 e |[M:4/4] A2 ^c2 d>e^FA |[M:4/2] B4 A4 z8 | %10
 z2 d2 B3 c G2 B2 c>d^FG |[M:4/4] A4 G4 |[M:4/2] z16 | z8 z4 eeeB | d6 c2 B4 A4 | z16 | %16
 z8 dddA c2 c2 | eeeB d6 c2 B4 | A8 z8 | z16 | z4 z2 d4 _B2 A4 | G4 z4 z8 | z8 z4 z2 c2- | %23
 c2 A2 G4 A2 e4 c2 |[M:4/4] B8 |[M:6/2] A16 ^c8 | d12 d4 c8 | B16 B8 | A16 z8 | z8 z8 d8 | %30
 e12 e4 d8 | c16 c8 | B16 z8 | z8 z8 ^c8 | d12 d4 c8 |[M:4/2] B4 B4 A8 | z4 c6 G2 E2 F2 | %37
 G4 F4 z8 | e6 B2 ^G2 A2 B4 |[M:6/2] A16 z8 | z24 | z8 z8 ^c8 | d12 d4 c8 | B16 B8 | A16 z8 | %45
 z8 z8 d8 | e12 e4 d8 | c16 c8 | B16 z8 |[M:4/2] z8 z4 d4- | d2 A2 ^F2 G2 A6 GF | E4 D4 f6 c2 | %52
 A2 B2 c6 _BA G4 | A8 e6 B2 | ^G4 A4 B8 | A16 |] %56
V:2
 z8 F,8 | D,4 z D,E,^F, G,6 C,2 | E,4 A,,4 z8 | F,8 D,4 z4 | G,8 E,4 z E,^F,^G, | %5
 A,4 ^F,D,E,F, G,6 C,2 | E,4 A,,4 z2 A,2 ^F,3 A, | D,2 ^F,2 G,>A,^C,D, E,4 A,,4 |[M:4/4] z8 | %9
[M:4/2] z2 E,2 ^C,3 E, A,,2 C,2 D,>E,B,,C, | D,4 G,,4 z8 |[M:4/4] z8 | %12
[M:4/2] z2 G,2 E,3 E, ^C,4 C,2 D,2 | _B,,4 A,,2 A,4 F,2 E,4 | z8 z4 z2 F,2 | %15
 D,3 D, B,,4 B,,2 C,2 A,,4 | G,,2 G,4 E,2 D,4 A,A,A,E, | G,2 G,2 B,B,B,^F, A,2 C,2 E,4 | %18
 A,,8 F,4 D,2 _B,,2 | A,,4 A,,2 A,2 F,>A,D,>F, _B,,>D,G,,>B,, | F,,4 _B,,4 z8 | %21
 z2 E,2 C,2 A,,2 G,,4 G,,2 G,2 | E,>G,C,>E, A,,>C,F,,>A,, E,,4 A,,2 A,2- | %23
 A,2 F,2 C,4 F,,2 C,4 A,,2 |[M:4/4] E,8 |[M:6/2] A,,16 z8 | z24 | z8 z8 ^G,8 | A,12 A,4 G,8 | %29
 F,16 F,8 | E,16 z8 | z8 z8 F,8 | G,12 G,4 F,8 | E,16 E,8 | D,16 z8 |[M:4/2] z8 z4 F,4- | %36
 F,2 C,2 A,,2 B,,2 C,8- | C,4 F,,4 A,6 E,2 | ^C,2 D,2 E,12 |[M:6/2] A,,16 F,8 | G,12 G,4 F,8 | %41
 E,16 E,8 | D,16 z8 | z8 z8 ^G,8 | A,12 A,4 G,8 | F,16 F,8 | E,16 z8 | z8 z8 F,8 | G,12 G,4 F,8 | %49
[M:4/2] E,4 E,4 D,8 | z4 D,6 A,,2 ^F,,2 G,,2 | A,,4 D,,4 z8 | F,6 C,2 A,,2 _B,,2 C,4 | %53
 F,,4 A,6 E,2 ^C,2 D,2 | E,16 | A,,16 |] %56
V:3
 F,16 | D,4- D,D,E,^F, G,6 C,2 | E,4 A,,4 A,8 | F,8 D,8 | G,8 E,4- E,E,^F,^G, | %5
 A,4 ^F,D,E,F, G,6 C,2 | E,4 A,,6 A,2 ^F,4 | D,4 G,2 ^C,2 E,4 A,,4- |[M:4/4] A,,4 D,2 E,2- | %9
[M:4/2] E,2 E,2 ^C,4 A,,2 C,2 D,2 B,,2 | D,4 G,,6 G,,2 C,2 D,2- |[M:4/4] D,2 D,,2 G,,4- | %12
[M:4/2] G,,2 G,2 E,3 E, ^C,4 C,2 D,2 | _B,,4 A,,2 A,4 F,2 E,4 | F,2 D,2 E,8 A,,2 F,2 | %15
 D,3 D, B,,4 B,,2 C,2 A,,4 | G,,2 G,4 E,2 D,4 A,,4 | E,4 B,B,B,^F, A,2 C,2 E,4 | %18
 A,,8 F,4 D,2 _B,,2 | A,,4 A,,2 A,2 F,2 D,2 _B,,2 G,,2 | F,,4 _B,,2 B,,4 G,,2 D,4 | %21
 G,,2 E,2 C,2 A,,2 G,,4 G,,2 G,2 | E,2 C,2 A,,2 F,,2 E,,4 A,,2 A,2- | A,2 F,2 C,4 F,,2 C,4 A,,2 | %24
[M:4/4] E,8 |[M:6/2] A,,16 A,,8 | D,12 D,4 A,,8 | E,16 ^G,8 | A,12 A,4 G,8 | F,16 F,8 | %30
 E,12 E,4 G,8 | A,16 F,8 | G,12 G,4 F,8 | E,16 E,8 | D,12 D,4 A,,8 |[M:4/2] E,4 E,4 A,,4 F,4- | %36
 F,2 C,2 A,,2 B,,2 C,8- | C,4 F,,4 A,6 E,2 | ^C,2 D,2 E,8 E,,4 |[M:6/2] A,,16 F,8 | G,12 G,4 F,8 | %41
 E,16 E,8 | D,12 D,4 A,,8 | E,16 ^G,8 | A,12 A,4 G,8 | F,16 F,8 | E,12 E,4 G,8 | A,16 F,8 | %48
 G,12 G,4 F,8 |[M:4/2] E,4 E,4 D,8- | D,4 D,6 A,,2 ^F,,2 G,,2 | A,,4 D,,4 F,,8 | %52
 F,6 C,2 A,,2 _B,,2 C,4 | F,,4 A,6 E,2 ^C,2 D,2 | E,16 | A,,16 |] %56

